X: 482
M: C
L: 1/8
K: Bm
V: 1
|:\
|:\
fBdB fBde | fBdB eAce |\
fBdB fBde | (f/e/f/g/ a)f eAce :|
V: 2 clef=bass middle=d
|:\
b2b2 b2b2 | b2b2 a2a2 |\
b2b2 b2b2 | b2b2 a2a2 :|
|:\
b2b2 b2b2 | b2b2 a2a2 |\
b2b2 b2b2 | b2b2 a2a2 :|

